!!!OTL: Xingfu dalu Gongchandang Kai
!!!ARE: Asia, China,ÿNingxia Jianchi
!! I, 158, 1)
!!!SCT: C1823
!!!YEM: Copyright 1995, estate of Helmut Schaffrath.
**kern
*ICvox
*Ivox
*M2/4
*k[f#]
*G:
{8dd
8dd
8ee
16ee
16ee
=1
8dd
16dd
16cc
4a
=2
8.dd
16cc
8a
8cc
=3
2dd}
=4
{8dd
8dd
8ee
16ee
16ee
=5
8dd
16dd
16cc
8.a
16dd
=6
8a
8g
8e
8d
=7
2g}
==
!!!AGN: Shange, Xintianyou
!! Han
!!!ONB: ESAC (Essen Associative Code) Database: SENGANSU
!!!AMT: simple duple
!!!AIN: vox
!!!EED: Helmut Schaffrath
!!!EEV: 1.0
*-
